<?xml version="1.0" encoding="UTF-8"?>
<map version="1.10" tiledversion="1.11.2" orientation="orthogonal" renderorder="right-down" width="30" height="41" tilewidth="32" tileheight="32" infinite="0" nextlayerid="13" nextobjectid="151">
 <editorsettings>
  <export target="map01.json" format="json"/>
 </editorsettings>
 <tileset firstgid="1" source="Interiors_32x32.tsx"/>
 <tileset firstgid="17025" source="Room_Builder_32x32.tsx"/>
 <layer id="7" name="bg" width="30" height="41">
  <data encoding="csv">
17417,17417,17417,17417,17417,17417,17417,17417,17417,17417,17417,17417,17417,17417,17417,17417,17417,17417,17417,17417,17417,17417,17417,17417,17417,17417,17417,17417,17417,17417,
17417,17417,17417,17417,17417,17417,17417,17417,17417,17417,17417,17417,17417,17417,17417,17417,17417,17417,17417,17417,17417,17417,17417,17417,17417,17417,17417,17417,17417,17417,
17417,17417,17417,17417,17417,17417,17417,17417,17417,17417,17417,17417,17417,17417,17417,17417,17417,17417,17417,17417,17417,17417,17417,17417,17417,17417,17417,17417,17417,17417,
17417,17417,17417,17417,17417,17417,17417,17417,17417,17417,17417,17417,17417,17417,17417,17417,17417,17417,17417,17417,17417,17417,17417,17417,17417,17417,17417,17417,17417,17417,
17417,17417,17417,17417,17417,17417,17417,17417,17417,17417,17417,17417,17417,17417,17417,17417,17417,17417,17417,17417,17417,17417,17417,17417,17417,17417,17417,17417,17417,17417,
17417,17417,17417,17417,17417,17417,17417,17417,17417,17417,17417,17417,17417,17417,17417,17417,17417,17417,17417,17417,17417,17417,17417,17417,17417,17417,17417,17417,17417,17417,
17417,17417,17417,17417,17417,17417,17417,17417,17417,17417,17417,17417,17417,17417,17417,17417,17417,17417,17417,17417,17417,17417,17417,17417,17417,17417,17417,17417,17417,17417,
17417,17417,17417,17417,17417,17417,17417,17417,17417,17417,17417,17417,17417,17417,17417,17417,17417,17417,17417,17417,17417,17417,17417,17417,17417,17417,17417,17417,17417,17417,
17417,17417,17417,17417,17417,17417,17417,17417,17417,17417,17417,17417,17417,17417,17417,17417,17417,17417,17417,17417,17417,17417,17417,17417,17417,17417,17417,17417,17417,17417,
17417,17417,17417,17417,17417,17417,17417,17417,17417,17417,17417,17417,17417,17417,17417,17417,17417,17417,17417,17417,17417,17417,17417,17417,17417,17417,17417,17417,17417,17417,
17417,17417,17417,17417,17417,17417,17417,17417,17417,17417,17417,17417,17417,17417,17417,17417,17417,17417,17417,17417,17417,17417,17417,17417,17417,17417,17417,17417,17417,17417,
17417,17417,17417,17417,17417,17417,17417,17417,17417,17417,17417,17417,17417,17417,17417,17417,17417,17417,17417,17417,17417,17417,17417,17417,17417,17417,17417,17417,17417,17417,
17417,17417,17417,17417,17417,17417,17417,17417,17417,17417,17417,17417,17417,17417,17417,17417,17417,17417,17417,17417,17417,17417,17417,17417,17417,17417,17417,17417,17417,17417,
17417,17417,17417,17417,17417,17417,17417,17417,17417,17417,17417,17417,17417,17417,17417,17417,17417,17417,17417,17417,17417,17417,17417,17417,17417,17417,17417,17417,17417,17417,
17417,17417,17417,17417,17417,17417,17417,17417,17417,17417,17417,17417,17417,17417,17417,17417,17417,17417,17417,17417,17417,17417,17417,17417,17417,17417,17417,17417,17417,17417,
17417,17417,17417,17417,17417,17417,17417,17417,17417,17417,17417,17417,17417,17417,17417,17417,17417,17417,17417,17417,17417,17417,17417,17417,17417,17417,17417,17417,17417,17417,
17417,17417,17417,17417,17417,17417,17417,17417,17417,17417,17417,17417,17417,17417,17417,17417,17417,17417,17417,17417,17417,17417,17417,17417,17417,17417,17417,17417,17417,17417,
17417,17417,17417,17417,17417,17417,17417,17417,17417,17417,17417,17417,17417,17417,17417,17417,17417,17417,17417,17417,17417,17417,17417,17417,17417,17417,17417,17417,17417,17417,
17417,17417,17417,17417,17417,17417,17417,17417,17417,17417,17417,17417,17417,17417,17417,17417,17417,17417,17417,17417,17417,17417,17417,17417,17417,17417,17417,17417,17417,17417,
17417,17417,17417,17417,17417,17417,17417,17417,17417,17417,17417,17417,17417,17417,17417,17417,17417,17417,17417,17417,17417,17417,17417,17417,17417,17417,17417,17417,17417,17417,
17417,17417,17417,17417,17417,17417,17417,17417,17417,17417,17417,17417,17417,17417,17417,17417,17417,17417,17417,17417,17417,17417,17417,17417,17417,17417,17417,17417,17417,17417,
17417,17417,17417,17417,17417,17417,17417,17417,17417,17417,17417,17417,17417,17417,17417,17417,17417,17417,17417,17417,17417,17417,17417,17417,17417,17417,17417,17417,17417,17417,
17417,17417,17417,17417,17417,17417,17417,17417,17417,17417,17417,17417,17417,17417,17417,17417,17417,17417,17417,17417,17417,17417,17417,17417,17417,17417,17417,17417,17417,17417,
17417,17417,17417,17417,17417,17417,17417,17417,17417,17417,17417,17417,17417,17417,17417,17417,17417,17417,17417,17417,17417,17417,17417,17417,17417,17417,17417,17417,17417,17417,
17417,17417,17417,17417,17417,17417,17417,17417,17417,17417,17417,17417,17417,17417,17417,17417,17417,17417,17417,17417,17417,17417,17417,17417,17417,17417,17417,17417,17417,17417,
17417,17417,17417,17417,17417,17417,17417,17417,17417,17417,17417,17417,17417,17417,17417,17417,17417,17417,17417,17417,17417,17417,17417,17417,17417,17417,17417,17417,17417,17417,
17417,17417,17417,17417,17417,17417,17417,17417,17417,17417,17417,17417,17417,17417,17417,17417,17417,17417,17417,17417,17417,17417,17417,17417,17417,17417,17417,17417,17417,17417,
17417,17417,17417,17417,17417,17417,17417,17417,17417,17417,17417,17417,17417,17417,17417,17417,17417,17417,17417,17417,17417,17417,17417,17417,17417,17417,17417,17417,17417,17417,
17417,17417,17417,17417,17417,17417,17417,17417,17417,17417,17417,17417,17417,17417,17417,17417,17417,17417,17417,17417,17417,17417,17417,17417,17417,17417,17417,17417,17417,17417,
17417,17417,17417,17417,17417,17417,17417,17417,17417,17417,17417,17417,17417,17417,17417,17417,17417,17417,17417,17417,17417,17417,17417,17417,17417,17417,17417,17417,17417,17417,
17417,17417,17417,17417,17417,17417,17417,17417,17417,17417,17417,17417,17417,17417,17417,17417,17417,17417,17417,17417,17417,17417,17417,17417,17417,17417,17417,17417,17417,17417,
17417,17417,17417,17417,17417,17417,17417,17417,17417,17417,17417,17417,17417,17417,17417,17417,17417,17417,17417,17417,17417,17417,17417,17417,17417,17417,17417,17417,17417,17417,
17417,17417,17417,17417,17417,17417,17417,17417,17417,17417,17417,17417,17417,17417,17417,17417,17417,17417,17417,17417,17417,17417,17417,17417,17417,17417,17417,17417,17417,17417,
17417,17417,17417,17417,17417,17417,17417,17417,17417,17417,17417,17417,17417,17417,17417,17417,17417,17417,17417,17417,17417,17417,17417,17417,17417,17417,17417,17417,17417,17417,
17417,17417,17417,17417,17417,17417,17417,17417,17417,17417,17417,17417,17417,17417,17417,17417,17417,17417,17417,17417,17417,17417,17417,17417,17417,17417,17417,17417,17417,17417,
17417,17417,17417,17417,17417,17417,17417,17417,17417,17417,17417,17417,17417,17417,17417,17417,17417,17417,17417,17417,17417,17417,17417,17417,17417,17417,17417,17417,17417,17417,
17417,17417,17417,17417,17417,17417,17417,17417,17417,17417,17417,17417,17417,17417,17417,17417,17417,17417,17417,17417,17417,17417,17417,17417,17417,17417,17417,17417,17417,17417,
17417,17417,17417,17417,17417,17417,17417,17417,17417,17417,17417,17417,17417,17417,17417,17417,17417,17417,17417,17417,17417,17417,17417,17417,17417,17417,17417,17417,17417,17417,
17417,17417,17417,17417,17417,17417,17417,17417,17417,17417,17417,17417,17417,17417,17417,17417,17417,17417,17417,17417,17417,17417,17417,17417,17417,17417,17417,17417,17417,17417,
17417,17417,17417,17417,17417,17417,17417,17417,17417,17417,17417,17417,17417,17417,17417,17417,17417,17417,17417,17417,17417,17417,17417,17417,17417,17417,17417,17417,17417,17417,
17417,17417,17417,17417,17417,17417,17417,17417,17417,17417,17417,17417,17417,17417,17417,17417,17417,17417,17417,17417,17417,17417,17417,17417,17417,17417,17417,17417,17417,17417
</data>
 </layer>
 <layer id="1" name="floor-wall" width="30" height="41">
  <data encoding="csv">
0,0,0,0,0,0,0,0,0,0,0,0,0,0,0,0,0,0,0,0,0,0,0,0,0,0,0,0,0,0,
0,0,17492,20153,20153,20153,20153,20153,20153,20153,20153,20153,20153,17494,0,0,0,0,0,0,0,0,0,0,0,0,0,0,0,0,
0,0,17568,20229,20229,20229,20229,20229,20229,20229,20229,20229,20229,17570,0,0,0,0,0,0,0,0,0,0,0,0,0,0,0,0,
0,0,17568,20032,20032,20032,20032,20032,20032,20032,20032,20032,20032,17570,0,0,0,0,0,0,0,0,0,0,0,0,0,0,0,0,
0,0,17568,20109,20109,20109,20109,20109,20109,20109,20109,20109,20109,17570,0,0,0,0,0,0,0,0,0,0,0,0,0,0,0,0,
0,0,17568,20109,20109,20109,20109,20109,20109,20109,20109,20109,20109,17570,0,0,0,0,0,0,0,0,0,0,0,0,0,0,0,0,
0,0,17644,17493,17493,17562,20109,20109,17563,17493,17493,17493,17493,17646,17492,20153,20153,20153,20153,17494,0,0,0,0,0,0,0,0,0,0,
0,0,0,0,0,17568,20265,20265,17570,0,0,0,0,0,17568,20229,20229,20229,20229,17570,17492,20153,20153,20153,20153,20153,20153,17494,0,0,
0,0,0,0,0,17568,20265,20265,17570,0,0,0,0,0,17568,20187,20188,20188,20188,17570,17568,20229,20229,20229,20229,20229,20229,17570,0,0,
0,0,0,0,0,17568,20265,20265,17570,0,0,0,0,0,17568,20263,20265,20265,20265,17570,17568,20187,20188,20188,20188,20188,20188,17570,0,0,
0,0,0,0,0,17568,20265,20265,20152,20153,20153,20153,20153,20153,20154,20265,20265,20265,20265,20152,20154,20263,20265,20265,20265,20265,20265,17570,0,0,
0,0,0,0,0,17568,20265,20265,20228,20229,20229,20229,20229,20229,20230,20265,20265,20265,20265,20228,20230,20263,20265,20265,20265,20265,20265,17570,0,0,
0,0,0,0,0,17568,20265,20265,20188,20188,20188,20188,20188,20188,20188,20188,20188,20188,20188,20188,20188,20189,20265,20265,20265,20265,20265,17570,0,0,
0,0,0,0,0,17568,20265,20265,20265,20265,20265,20265,20265,20265,20265,20265,20265,20265,20265,20265,20265,20265,20265,20265,20265,20265,20265,17570,0,0,
0,0,0,0,0,17492,20153,20153,20153,20153,20153,20153,17419,20265,20265,17421,20153,20153,20153,20153,20153,20153,17420,20154,20265,20152,20153,20153,20153,17494,
0,0,0,0,0,17568,20229,20229,20229,20229,20229,20229,20155,20265,20265,20155,20229,20229,20229,20229,20229,20229,17496,20230,20265,20228,20229,20229,20229,17570,
0,0,0,0,0,17568,20187,20188,20188,20188,20188,20188,20231,20265,20265,20231,20187,20188,20188,20188,20188,20188,17496,20187,20189,20188,20188,20188,20188,17570,
0,0,0,0,0,17568,20263,20265,20265,20265,20265,20265,20188,20189,20265,20188,20189,20265,20265,20265,20265,20265,20155,20263,20265,20265,20265,20265,20265,17570,
0,0,0,0,0,17568,20263,20265,20265,20265,20265,20265,17497,20265,20265,17497,20263,20265,20265,20265,20265,20265,20231,20263,20265,20265,20265,20265,20265,17570,
0,0,0,0,0,17568,20263,20265,20265,20265,20265,20265,17496,20263,20265,17496,20263,20265,20265,20265,20265,20265,20265,20265,20265,20265,20265,20265,20265,17570,
0,0,0,0,0,17568,20263,20265,20265,20265,20265,20265,17496,20263,20265,17496,17645,17645,17645,17645,17645,17645,17645,17645,17645,17645,17645,17645,17645,17646,
0,0,0,0,0,17568,20263,20265,20265,20265,20265,20265,17496,20263,20265,17496,0,0,0,0,0,0,0,0,0,0,0,0,0,0,
0,0,0,0,17492,20316,20316,20316,20316,20316,20316,20316,17419,20263,20265,17421,19860,19860,19860,19860,19860,19860,19860,19860,19860,19860,19860,19860,17494,0,
0,0,0,0,17568,20392,20392,20392,20392,20392,20392,20392,20318,20111,20113,19710,19936,19936,19936,19936,19936,19936,19936,19936,19936,19936,19936,19936,17570,0,
0,0,0,0,17568,20035,20036,20036,20036,20036,20036,20036,20394,20111,20113,19786,20035,20036,20036,20036,20036,20036,20036,20036,20036,20036,20036,20036,17570,0,
0,0,0,0,17568,20111,20113,20113,20113,20113,20113,20113,20036,20037,20113,20036,20037,20113,20113,20113,20113,20113,20113,20113,20113,20113,20113,20113,17570,0,
0,0,0,0,17568,20111,20113,20113,20113,20113,20113,20113,20113,20113,20113,17497,20113,20113,20113,20113,20113,20113,20113,20113,20113,20113,20113,20113,17570,0,
0,0,0,0,17568,19860,19860,19860,19860,19860,19860,19860,17419,20113,20113,17496,19860,19860,19860,19860,19860,19860,19860,19860,19860,19860,19860,19860,17570,0,
0,0,0,0,17568,19936,19936,19936,19936,19936,19936,19936,17496,20111,20113,19710,19936,19936,19936,19936,19936,19936,19936,19936,19936,19936,19936,19936,17570,0,
0,0,0,0,17568,20035,20036,20036,20036,20036,20036,20036,17496,20111,20113,19786,20035,20036,20036,20036,20036,20036,20036,20036,20036,20036,20036,20036,17570,0,
0,0,0,0,17568,20111,20113,20113,20113,20113,20113,20113,17496,20111,20113,20036,20037,20113,20113,20113,20113,20113,20113,20113,20113,20113,20113,20113,17570,0,
0,0,0,0,17568,20111,20113,20113,20113,20113,20113,20113,17496,20111,20113,17497,20113,20113,20113,20113,20113,20113,20113,20113,20113,20113,20113,20113,17570,0,
19707,19708,19708,19708,19708,19708,19861,20113,19859,19708,19708,19708,19709,20111,20113,17563,17493,17493,17493,17493,17493,17493,17493,17493,17493,17493,17493,17493,17646,0,
19783,19784,19784,19784,19784,19784,19937,20113,19935,19784,19784,19784,19785,20111,20113,17570,17492,19860,19860,19860,19860,19860,17494,0,0,0,0,0,0,0,
20035,20036,20036,20036,20036,20036,20036,20189,20036,20036,20036,20036,20036,20037,20113,19859,19861,19936,19936,19936,19936,19936,17570,0,0,0,0,0,0,0,
20111,20113,20113,20113,20113,20113,20113,20113,20113,20113,20113,20113,20113,20113,20113,19935,19937,20035,20036,20036,20036,20036,17570,0,0,0,0,0,0,0,
20111,20113,20113,20113,20113,20113,20113,20113,20113,20113,20113,20113,20113,20113,20113,20036,20036,20037,20113,20113,20113,20113,17570,0,0,0,0,0,0,0,
20111,20113,20113,20113,20113,20113,20113,20113,20113,20113,20113,20113,20113,20113,20113,20113,20113,20113,20113,20113,20113,20113,17570,0,0,0,0,0,0,0,
17645,17645,17645,17645,17645,17645,17645,17645,17490,20113,20113,20113,20113,20113,20113,20113,20113,20113,20113,20113,20113,20113,17570,0,0,0,0,0,0,0,
0,0,0,0,0,0,0,0,17568,20113,20113,20113,20113,20113,20113,20113,20113,20113,20113,20113,20113,20113,17570,0,0,0,0,0,0,0,
0,0,0,0,0,0,0,0,17644,17645,17645,17645,17645,17645,17645,17645,17645,17645,17645,17645,17645,17645,17646,0,0,0,0,0,0,0
</data>
 </layer>
 <layer id="5" name="floor-objects-behind" width="30" height="41">
  <data encoding="csv">
0,0,0,0,0,0,0,0,0,0,0,0,0,0,0,0,0,0,0,0,0,0,0,0,0,0,0,0,0,0,
0,0,0,0,0,0,0,0,10558,10559,10560,0,0,0,0,0,0,0,0,0,0,0,0,0,0,0,0,0,0,0,
0,0,0,0,0,0,0,0,10574,10575,10576,0,0,0,0,0,0,0,0,0,0,0,0,0,0,0,0,0,0,0,
0,0,0,0,0,0,0,0,10590,10591,10592,0,0,0,0,0,0,0,0,0,0,0,0,0,0,0,0,0,0,0,
0,0,0,0,0,0,0,0,0,0,0,0,0,0,0,0,0,0,0,0,0,0,0,0,0,0,0,0,0,0,
0,0,0,0,0,0,0,0,0,0,0,0,0,0,0,0,0,0,0,0,0,0,0,0,0,0,0,0,0,0,
0,0,0,0,0,0,0,0,0,0,0,0,0,0,0,0,0,0,0,0,0,0,0,0,0,0,0,0,0,0,
0,0,0,0,0,0,0,0,0,0,0,0,0,0,0,0,0,0,0,0,0,0,0,0,0,0,0,0,0,0,
0,0,0,0,0,0,0,0,0,0,0,0,0,0,0,0,0,0,0,0,0,0,0,0,0,0,0,0,0,0,
0,0,0,0,0,0,0,0,0,0,0,0,0,0,0,0,0,0,0,0,0,0,0,0,0,0,0,0,0,0,
0,0,0,0,0,0,0,0,0,0,0,0,0,0,0,0,0,0,0,0,0,0,0,0,0,0,0,0,0,0,
0,0,0,0,0,0,0,0,0,0,0,0,0,0,0,0,0,0,0,0,0,0,0,0,0,0,0,0,0,0,
0,0,0,0,0,0,0,0,0,0,0,0,0,0,0,0,0,0,0,0,0,0,0,0,0,0,0,0,0,0,
0,0,0,0,0,0,0,0,0,0,0,0,0,0,0,0,0,0,0,0,0,0,0,0,0,0,0,0,0,0,
0,0,0,0,0,0,0,0,0,0,0,0,0,0,0,0,0,0,0,10019,10020,10021,0,0,0,0,0,0,0,0,
0,0,0,0,0,0,0,0,0,0,0,0,0,0,0,0,0,0,0,10035,10036,10037,0,0,0,0,0,0,0,0,
0,0,0,0,0,0,0,0,0,0,0,0,0,0,0,0,0,0,0,0,0,0,0,0,0,0,0,0,0,0,
0,0,0,0,0,0,0,0,0,0,0,0,0,0,0,0,0,0,0,0,0,0,0,0,0,0,0,0,0,0,
0,0,0,0,0,0,0,0,0,0,0,0,0,0,0,0,0,0,0,0,0,0,0,0,0,0,0,0,0,0,
0,0,0,0,0,0,10092,10093,0,0,0,0,0,0,0,0,0,0,0,0,0,0,0,0,0,0,0,0,0,0,
0,0,0,0,0,0,0,0,0,0,0,0,0,0,0,0,0,0,0,0,0,0,0,0,0,0,0,0,0,0,
0,0,0,0,0,0,0,0,0,0,0,0,0,0,0,0,0,0,0,0,0,0,0,0,0,0,0,0,0,0,
0,0,0,0,0,0,0,0,0,0,0,0,0,0,0,0,0,0,0,0,0,0,0,9861,0,0,0,0,0,0,
0,0,0,0,0,0,0,0,0,0,0,0,0,0,0,0,0,0,0,0,0,0,0,9877,0,0,0,0,0,0,
0,0,0,0,0,0,0,0,0,0,0,0,0,0,0,0,0,0,0,0,0,0,0,0,0,0,0,0,0,0,
0,0,0,0,0,0,0,0,0,0,0,0,0,0,0,0,0,0,0,0,0,0,0,0,0,0,0,0,0,0,
0,0,0,0,0,0,0,0,0,0,0,0,0,0,0,0,0,0,0,0,0,0,0,0,0,0,0,0,0,0,
0,0,0,0,0,0,0,0,0,0,0,0,0,0,0,0,0,0,0,0,0,0,9827,9828,0,0,0,0,0,0,
0,0,0,0,0,0,0,0,0,0,0,0,0,0,0,0,0,0,0,0,0,0,9843,9844,0,0,0,0,0,0,
0,0,0,0,0,0,0,0,0,0,0,0,0,0,0,0,0,0,0,0,0,0,0,0,0,0,0,0,0,0,
0,0,0,0,0,0,0,0,0,0,0,0,0,0,0,0,0,0,0,0,0,0,0,0,0,0,0,0,0,0,
0,0,0,0,0,0,0,0,0,0,0,0,0,0,0,0,0,0,0,0,0,0,0,0,0,0,0,0,0,0,
0,0,0,0,0,0,0,0,0,0,0,0,0,0,0,0,0,0,0,0,0,0,0,0,0,0,0,0,0,0,
0,0,0,0,0,9650,9752,0,0,0,0,0,0,0,0,0,0,0,0,0,0,0,0,0,0,0,0,0,0,0,
0,0,0,0,0,9666,9768,0,0,0,0,0,0,0,0,0,0,0,0,0,0,0,0,0,0,0,0,0,0,0,
0,0,0,0,0,0,0,0,0,0,0,0,0,0,0,0,0,0,0,0,0,0,0,0,0,0,0,0,0,0,
0,0,0,0,0,0,0,0,0,0,0,0,0,0,0,0,0,0,0,0,0,0,0,0,0,0,0,0,0,0,
0,0,0,0,0,0,0,0,0,0,0,0,0,0,0,0,0,0,0,0,0,0,0,0,0,0,0,0,0,0,
0,0,0,0,0,0,0,0,0,0,0,0,0,0,0,0,0,0,0,0,0,0,0,0,0,0,0,0,0,0,
0,0,0,0,0,0,0,0,0,0,0,0,0,0,0,0,0,0,0,0,0,0,0,0,0,0,0,0,0,0,
0,0,0,0,0,0,0,0,0,0,0,0,0,0,0,0,0,0,0,0,0,0,0,0,0,0,0,0,0,0
</data>
 </layer>
 <layer id="4" name="floor-objects" width="30" height="41">
  <data encoding="csv">
0,0,0,0,0,0,0,0,0,0,0,0,0,0,0,0,0,0,0,0,0,0,0,0,0,0,0,0,0,0,
0,0,0,0,10553,10554,10547,10548,0,0,0,10547,10548,0,0,0,0,0,0,0,0,0,0,0,0,0,0,0,0,0,
0,0,0,8234,10569,10570,10563,10564,0,0,0,10563,10564,0,0,0,0,0,0,0,0,0,0,0,0,0,0,0,0,0,
0,0,0,8250,10585,10586,10579,10580,0,0,10494,10579,10580,0,0,0,0,0,0,0,0,0,0,0,0,0,0,0,0,0,
0,0,0,0,0,0,10593,10594,0,0,10510,10593,10594,0,0,0,0,0,0,0,0,0,0,0,0,0,0,0,0,0,
0,0,0,10524,10525,0,0,0,0,0,0,9939,9940,0,0,0,0,0,0,0,0,0,0,0,0,0,0,0,0,0,
0,0,0,0,0,0,0,0,0,0,0,0,0,17646,0,10415,10416,0,0,0,0,0,0,0,0,0,0,0,0,0,
0,0,0,0,0,0,0,0,0,0,0,0,0,0,0,10431,10432,10661,10032,0,0,10115,10116,10137,10138,10097,10098,0,0,0,
0,0,0,0,0,0,0,0,0,0,0,0,0,0,0,10447,10448,10677,10048,0,0,10490,10491,10153,10154,10487,10488,0,0,0,
0,0,0,0,0,0,0,0,0,0,0,0,0,0,0,0,0,0,10064,0,0,10506,10507,10169,10170,10503,10504,0,0,0,
0,0,0,0,0,0,0,0,10141,10142,0,0,0,0,0,10411,10412,10414,10413,0,10458,10514,10516,0,0,10498,10485,0,0,0,
0,0,0,0,0,0,0,0,10157,10158,9978,9979,0,0,9650,10427,10428,10430,10429,9650,10474,10531,10532,0,0,10499,10500,0,0,0,
0,0,0,0,0,0,0,0,10173,10174,9994,9995,0,0,9666,0,0,0,0,9666,0,0,0,0,0,0,9683,0,0,0,
0,0,0,0,0,0,0,0,0,0,0,0,0,0,0,0,0,0,0,0,0,0,0,0,0,10130,9699,0,0,0,
0,0,0,0,0,0,0,0,10054,10055,10002,10049,0,0,0,0,0,0,0,9953,0,0,0,0,3477,0,10245,10246,10247,0,
0,0,0,0,0,0,9962,9963,10070,10071,10018,10065,10051,0,0,10050,10056,10057,9984,9969,0,0,0,0,3493,0,10261,10262,10263,0,
0,0,0,0,0,0,9994,9995,10086,10087,10034,0,10067,0,0,10066,10072,10073,10000,9985,0,9949,0,0,0,0,10277,10278,10279,0,
0,0,0,0,0,0,0,0,10102,10103,0,0,0,0,0,0,0,10027,10016,0,10012,10013,0,10386,10387,10388,10452,10453,10454,0,
0,0,0,0,0,0,0,0,0,0,10088,10089,0,0,0,0,0,0,0,0,9996,9997,0,10402,10403,10404,10468,10469,10470,0,
0,0,0,0,0,0,2147493597,0,0,0,10104,10105,0,0,0,0,9941,9942,0,0,0,0,0,0,0,0,0,0,0,0,
0,0,0,0,0,0,10062,10063,0,0,10120,10121,0,0,0,0,0,0,0,0,0,0,0,0,0,0,0,0,0,0,
0,0,0,0,0,0,10046,10047,0,0,0,0,0,0,0,0,0,0,0,0,0,0,0,0,0,0,0,0,0,0,
0,0,0,0,0,0,0,9891,9892,0,0,0,0,0,0,0,0,0,0,0,9826,0,0,0,9826,0,0,0,0,0,
0,0,0,0,0,9899,9900,9907,9908,9899,9900,8234,0,0,0,0,0,9846,9847,9763,9842,9846,9847,9763,9842,9846,9847,9763,0,0,
0,0,0,0,0,9915,9916,9923,9924,9915,9916,8250,0,0,0,0,0,9862,9863,9779,9858,9862,9863,9779,9858,9862,9863,9779,0,0,
0,0,0,0,0,9931,9932,0,0,9931,9932,0,0,0,0,0,0,9878,9879,0,9874,9878,9879,0,9874,9878,9879,0,0,0,
0,0,0,0,0,0,8234,0,0,0,0,0,0,0,0,0,0,0,0,0,0,0,0,0,0,0,0,0,0,0,
0,0,0,0,0,9564,0,9565,9567,9661,9662,9568,0,0,0,0,0,0,0,0,9825,0,0,0,9826,0,0,0,0,0,
0,0,0,0,0,9580,9603,9581,9583,9677,9678,9584,0,0,0,0,0,9846,9847,9763,9841,9846,9847,9795,9842,9846,9847,9763,0,0,
0,0,0,0,0,9596,9619,9597,9599,9693,9694,9600,0,0,0,0,0,9862,9863,9779,9857,9862,9863,9811,9858,9862,9863,9779,0,0,
0,0,0,0,0,0,0,0,0,0,0,9628,0,0,0,0,0,9878,9879,0,9873,9878,9879,0,9874,9878,9879,0,0,0,
0,0,0,0,0,0,0,0,0,0,0,9644,0,0,0,0,0,0,0,0,0,0,0,0,0,0,0,0,0,0,
9683,9661,9662,0,0,0,0,3477,0,0,0,0,0,0,0,0,0,0,0,0,0,0,0,0,0,0,0,0,0,0,
9699,9663,9664,0,9462,0,0,3493,0,0,0,9466,0,0,0,0,0,0,0,0,0,9490,0,0,0,0,0,0,0,0,
9715,9693,9694,0,9478,9479,9479,9463,9464,9463,9464,9482,0,0,0,9684,9685,0,0,0,0,0,0,0,0,0,0,0,0,0,
0,0,0,0,9494,9495,9495,9496,9495,9496,9495,9497,0,0,0,9700,9701,0,0,0,0,0,0,0,0,0,0,0,0,0,
9635,0,0,0,0,0,0,0,0,0,0,0,0,0,0,9716,9717,0,0,0,0,0,0,0,0,0,0,0,0,0,
9651,0,0,0,0,0,0,0,0,0,0,0,0,0,0,0,0,0,0,9730,9732,0,0,0,0,0,0,0,0,0,
0,0,0,0,0,0,0,0,0,9635,0,0,0,0,0,0,0,0,0,9746,9747,0,0,0,0,0,0,0,0,0,
0,0,0,0,0,0,0,0,0,9651,0,9695,9696,0,0,0,0,0,0,0,0,0,0,0,0,0,0,0,0,0,
0,0,0,0,0,0,0,0,0,0,0,0,0,0,0,0,0,0,0,0,0,0,0,0,0,0,0,0,0,0
</data>
 </layer>
 <layer id="6" name="floor-wall2" width="30" height="41">
  <data encoding="csv">
0,0,0,0,0,0,0,0,0,0,0,0,0,0,0,0,0,0,0,0,0,0,0,0,0,0,0,0,0,0,
0,0,0,10528,0,0,0,0,0,0,0,0,0,0,0,0,0,0,0,0,0,0,0,0,0,0,0,0,0,0,
0,0,0,10544,0,0,0,0,0,0,0,0,0,0,0,0,0,0,0,0,0,0,0,0,0,0,0,0,0,0,
0,0,0,0,0,8240,0,0,0,0,0,0,0,0,0,0,0,0,0,0,0,0,0,0,0,0,0,0,0,0,
0,0,0,0,0,0,0,0,0,0,0,0,0,0,0,0,0,0,0,0,0,0,0,0,0,0,0,0,0,0,
0,0,0,0,0,0,0,0,0,0,0,0,0,0,0,0,0,0,0,0,0,0,0,0,0,0,0,0,0,0,
0,0,0,0,0,0,0,0,0,0,0,0,0,0,0,0,0,0,9977,0,0,0,0,0,0,0,0,0,0,0,
0,0,0,0,0,0,0,0,0,0,0,0,0,0,0,0,0,0,9993,0,0,0,0,0,0,0,0,0,0,0,
0,0,0,0,0,0,0,0,0,0,0,0,0,0,0,0,0,0,0,0,0,0,0,0,0,0,0,0,0,0,
0,0,0,0,0,0,0,0,0,0,0,0,0,0,0,0,0,0,0,0,0,0,0,0,0,0,0,0,0,0,
0,0,0,0,0,0,0,0,0,0,0,0,0,0,0,0,0,0,0,0,0,0,0,0,0,0,0,0,0,0,
0,0,0,0,0,0,0,0,0,0,9962,0,0,0,0,0,0,0,0,0,0,0,0,0,0,0,0,0,0,0,
0,0,0,0,0,0,0,0,0,0,0,0,0,0,0,0,0,0,0,0,0,0,0,0,0,0,0,0,0,0,
0,0,0,0,0,0,0,0,0,0,0,0,0,0,0,0,0,0,0,0,0,0,0,0,0,0,0,0,0,0,
0,0,0,0,0,0,0,0,0,0,0,0,0,0,0,0,0,0,9977,0,0,0,0,0,0,0,0,0,0,0,
0,0,0,0,0,0,0,0,0,0,0,9970,0,0,0,0,0,0,9993,0,0,0,0,0,0,0,0,0,0,0,
0,0,0,0,0,0,0,0,0,0,0,9986,0,0,0,0,0,0,0,0,0,0,0,0,0,0,0,0,0,0,
0,0,0,0,0,0,0,0,0,0,0,0,0,0,0,0,0,0,0,0,0,0,0,10297,10298,0,0,0,0,0,
0,0,0,0,0,0,0,0,0,0,0,0,0,0,0,0,0,0,0,0,0,10094,0,10313,10314,0,0,0,9635,0,
0,0,0,0,0,0,0,0,0,0,0,0,0,0,0,0,0,0,0,0,0,10095,0,10329,10330,0,0,0,9651,0,
0,0,0,0,0,0,0,0,0,0,0,10124,0,0,0,0,0,0,0,0,0,0,0,0,0,0,0,0,0,0,
0,0,0,0,0,0,10111,0,0,0,0,0,0,0,0,0,0,0,0,0,0,0,0,0,0,0,0,0,0,0,
0,0,0,0,0,0,0,0,0,0,0,0,0,0,0,0,0,9830,9831,0,0,0,0,0,0,0,0,0,0,0,
0,0,0,0,0,0,0,0,0,0,0,0,0,0,0,0,0,0,0,9761,0,0,0,9777,0,0,0,9778,0,0,
0,0,0,0,0,0,0,0,0,0,0,0,0,0,0,0,0,0,0,0,0,0,0,0,0,0,0,0,0,0,
0,0,0,0,0,0,0,0,0,0,0,0,0,0,0,0,0,0,0,0,0,0,0,0,0,0,0,0,0,0,
0,0,0,0,0,0,0,0,0,0,0,0,0,0,0,0,0,0,0,0,0,0,0,0,0,0,0,0,0,0,
0,0,0,0,0,0,0,0,0,0,0,0,0,0,0,0,0,0,0,0,0,0,0,0,0,9814,9815,0,0,0,
0,0,0,0,0,0,0,0,0,0,0,0,0,0,0,0,0,0,0,9780,0,0,0,9765,0,0,0,9762,0,0,
0,0,0,0,0,9611,0,0,0,0,0,9612,0,0,0,0,0,0,0,0,0,0,0,0,0,0,0,0,0,0,
0,0,0,0,0,9627,9754,0,0,0,9613,9614,0,0,0,0,0,0,0,0,0,0,0,0,0,0,0,0,0,0,
0,0,0,0,0,9643,9770,0,0,9603,9629,9630,0,0,0,0,0,0,0,0,0,0,0,0,0,0,0,0,0,0,
0,0,0,0,0,0,0,0,0,0,0,0,0,0,0,0,0,0,0,0,0,0,0,0,0,0,0,0,0,0,
0,0,0,0,0,0,0,0,0,0,0,0,0,0,0,0,0,0,0,9740,9741,0,0,0,0,0,0,0,0,0,
0,0,0,0,0,0,0,0,0,0,0,9617,0,0,0,0,0,0,0,9756,9757,0,0,0,0,0,0,0,0,0,
0,0,0,0,0,0,0,0,0,0,0,9633,0,0,0,0,0,0,0,0,0,0,0,0,0,0,0,0,0,0,
0,0,0,0,0,0,0,0,0,0,0,0,0,0,0,0,0,0,0,0,0,0,0,0,0,0,0,0,0,0,
0,0,0,0,0,0,0,0,0,0,0,0,0,0,0,0,0,0,0,0,0,0,0,0,0,0,0,0,0,0,
0,0,0,0,0,0,0,0,0,0,0,0,0,0,0,0,0,0,0,0,0,0,0,0,0,0,0,0,0,0,
0,0,0,0,0,0,0,0,0,0,0,0,0,0,0,0,0,0,0,0,0,0,0,0,0,0,0,0,0,0,
0,0,0,0,0,0,0,0,0,0,0,0,0,0,0,0,0,0,0,0,0,0,0,0,0,0,0,0,0,0
</data>
 </layer>
 <layer id="9" name="above-player" width="30" height="41">
  <data encoding="csv">
0,0,0,0,0,0,0,0,0,0,0,0,0,0,0,0,0,0,0,0,0,0,0,0,0,0,0,0,0,0,
0,0,0,0,0,0,0,0,0,0,0,0,0,0,0,0,0,0,0,0,0,0,0,0,0,0,0,0,0,0,
0,0,0,0,0,0,0,0,0,0,0,0,0,0,0,0,0,0,0,0,0,0,0,0,0,0,0,0,0,0,
0,0,0,0,0,0,0,0,0,0,0,0,0,0,0,0,0,0,0,0,0,0,0,0,0,0,0,0,0,0,
0,0,0,0,0,0,0,0,0,0,0,0,0,0,0,0,0,0,0,0,0,0,0,0,0,0,0,0,0,0,
0,0,0,0,0,0,0,0,0,0,0,0,0,0,0,0,0,0,0,0,0,0,0,0,0,0,0,0,0,0,
0,0,0,17037,17037,17037,0,0,17037,17037,17037,17037,17037,0,0,0,0,0,0,0,0,0,0,0,0,0,0,0,0,0,
0,0,0,0,0,0,0,0,0,0,0,0,0,0,0,0,0,0,0,0,0,0,0,0,0,0,0,0,0,0,
0,0,0,0,0,0,0,0,0,0,0,0,0,0,0,0,0,0,0,0,0,0,0,0,0,0,0,0,0,0,
0,0,0,0,0,0,0,0,0,0,0,0,0,0,0,0,0,0,0,0,0,0,0,0,0,0,0,0,0,0,
0,0,0,0,0,0,0,0,0,0,0,0,0,0,0,0,0,0,0,0,0,0,0,0,0,0,0,0,0,0,
0,0,0,0,0,0,0,0,0,0,0,0,0,0,0,0,0,0,0,0,0,0,0,0,0,0,0,0,0,0,
0,0,0,0,0,0,0,0,0,0,0,0,0,0,0,0,0,0,0,0,0,0,0,0,0,0,0,0,0,0,
0,0,0,0,0,0,0,0,0,0,0,0,0,0,0,0,0,0,0,0,0,0,0,0,0,0,0,0,0,0,
0,0,0,0,0,0,0,0,0,0,0,0,0,0,0,0,0,0,0,0,0,0,0,0,0,0,0,0,0,0,
0,0,0,0,0,0,0,0,0,0,0,0,0,0,0,0,0,0,0,0,0,0,0,0,0,0,0,0,0,0,
0,0,0,0,0,0,0,0,0,0,0,0,0,0,0,0,0,0,0,0,0,9949,0,0,0,0,0,0,0,0,
0,0,0,0,0,0,0,0,0,0,0,0,0,0,0,0,0,0,0,0,10012,10013,0,0,0,0,0,0,0,0,
0,0,0,0,0,0,0,0,0,0,0,0,0,0,0,0,0,0,0,0,0,0,0,0,0,0,0,0,0,0,
0,0,0,0,0,0,0,0,0,0,0,0,0,0,0,0,0,0,0,0,0,0,0,0,0,0,0,0,0,0,
0,0,0,0,0,0,0,0,0,0,0,0,0,0,0,0,17037,17037,17037,17037,17037,17037,17037,17037,17037,17037,17037,17037,17037,0,
0,0,0,0,0,0,0,0,0,0,0,0,0,0,0,0,0,0,0,0,0,0,0,0,0,0,0,0,0,0,
0,0,0,0,0,0,0,0,0,0,0,0,0,0,0,0,0,0,0,0,0,0,0,0,0,0,0,0,0,0,
0,0,0,0,0,0,0,0,0,0,0,0,0,0,0,0,0,0,0,0,0,0,0,0,0,0,0,0,0,0,
0,0,0,0,0,0,0,0,0,0,0,0,0,0,0,0,0,0,0,0,0,0,0,0,0,0,0,0,0,0,
0,0,0,0,0,0,0,0,0,0,0,0,0,0,0,0,0,0,0,0,0,0,0,0,0,0,0,0,0,0,
0,0,0,0,0,0,0,0,0,0,0,0,0,0,0,0,0,0,0,0,0,0,0,0,0,0,0,0,0,0,
0,0,0,0,0,0,0,0,0,0,0,0,0,0,0,0,0,0,0,0,0,0,0,0,0,0,0,0,0,0,
0,0,0,0,0,0,0,0,0,0,0,0,0,0,0,0,0,0,0,0,0,0,0,0,0,0,0,0,0,0,
0,0,0,0,0,0,0,0,0,0,0,0,0,0,0,0,0,0,0,0,0,0,0,0,0,0,0,0,0,0,
0,0,0,0,0,0,9754,0,0,0,9613,9614,0,0,0,0,0,0,0,0,0,0,0,0,0,0,0,0,0,0,
0,0,0,0,0,0,9770,0,0,9603,9629,9630,0,0,0,0,0,0,0,0,0,0,0,0,0,0,0,0,0,0,
0,0,0,0,0,0,0,0,0,0,0,0,0,0,0,0,17037,17037,17037,17037,17037,17037,17037,17037,17037,17037,17037,17037,17037,0,
0,0,0,0,0,0,0,0,0,0,0,0,0,0,0,0,0,0,0,0,0,0,0,0,0,0,0,0,0,0,
0,0,0,0,0,9479,9479,9463,9464,9463,9464,0,0,0,0,0,0,0,0,0,0,0,0,0,0,0,0,0,0,0,
0,0,0,0,0,0,0,0,0,0,0,0,0,0,0,0,0,0,0,0,0,0,0,0,0,0,0,0,0,0,
0,0,0,0,0,0,0,0,0,0,0,0,0,0,0,0,0,0,0,0,0,0,0,0,0,0,0,0,0,0,
0,0,0,0,0,0,0,0,0,0,0,0,0,0,0,0,0,0,0,0,0,0,0,0,0,0,0,0,0,0,
17037,17037,17037,17037,17037,17037,17037,17037,17037,0,0,0,0,0,0,0,0,0,0,0,0,0,0,0,0,0,0,0,0,0,
0,0,0,0,0,0,0,0,0,0,0,0,0,0,0,0,0,0,0,0,0,0,0,0,0,0,0,0,0,0,
0,0,0,0,0,0,0,0,0,17037,17037,17037,17037,17037,17037,17037,17037,17037,17037,17037,17037,17037,0,0,0,0,0,0,0,0
</data>
 </layer>
 <objectgroup id="8" name="colission">
  <object id="5" x="0.25" y="1216.75" width="32" height="24"/>
  <object id="8" x="32.25" y="1240.25" width="254.75" height="28"/>
  <object id="9" x="274.75" y="1268.5" width="13" height="34.25"/>
  <object id="10" x="287.25" y="1280.25" width="29.75" height="26.25"/>
  <object id="11" x="316.5" y="1299.25" width="45" height="13"/>
  <object id="12" x="360.25" y="1280.5" width="46" height="19"/>
  <object id="13" x="406.75" y="1299.5" width="44" height="21"/>
  <object id="14" x="450.667" y="1299.75" width="252.75" height="31.25"/>
  <object id="16" x="543.833" y="1093.25" width="160.75" height="26.5"/>
  <object id="20" x="480" y="1144.36" width="63.4545" height="7.45455"/>
  <object id="21" x="502" y="1151.64" width="19.8182" height="16.1818"/>
  <object id="22" x="481" y="1017.5" width="10.75" height="127"/>
  <object id="25" x="491.818" y="1017.45" width="20.1818" height="33.0909"/>
  <object id="26" x="512.182" y="1050.36" width="384" height="5.81818"/>
  <object id="27" x="897" y="926.75" width="17.25" height="129.5"/>
  <object id="28" x="864" y="927.273" width="32" height="22.3636"/>
  <object id="29" x="512" y="908.667" width="353" height="12"/>
  <object id="31" x="608.5" y="927" width="30" height="22.5"/>
  <object id="32" x="650" y="928" width="5.75" height="61"/>
  <object id="34" x="736" y="926.75" width="29.5" height="22.75"/>
  <object id="35" x="780.25" y="927.25" width="5.25" height="62.75"/>
  <object id="37" x="-0.666667" y="1068" width="222" height="18"/>
  <object id="38" x="8" y="1086.33" width="15.6667" height="19.3333"/>
  <object id="39" x="40.3333" y="1085.67" width="47" height="23.6667"/>
  <object id="40" x="128.333" y="1086.67" width="25.6667" height="59"/>
  <object id="41" x="153.667" y="1133" width="230" height="13"/>
  <object id="42" x="357" y="1086.33" width="25.6667" height="46.6667"/>
  <object id="43" x="256.333" y="1073.33" width="158.333" height="13.3333"/>
  <object id="44" x="390.667" y="1089" width="19" height="16"/>
  <object id="45" x="384.667" y="889.667" width="29.6667" height="184"/>
  <object id="46" x="481" y="856.5" width="29.75" height="102.5"/>
  <object id="47" x="511.5" y="881.25" width="385" height="6.25"/>
  <object id="48" x="897" y="750.5" width="13" height="176"/>
  <object id="49" x="481" y="600" width="29.5" height="199"/>
  <object id="50" x="511.583" y="752.25" width="387" height="9"/>
  <object id="51" x="864.5" y="765.25" width="28.75" height="24.25"/>
  <object id="53" x="780" y="767" width="5.5" height="62.75"/>
  <object id="54" x="735.75" y="767.25" width="29.25" height="22.5"/>
  <object id="56" x="652.5" y="765.5" width="4.5" height="63.5"/>
  <object id="57" x="608.5" y="766.5" width="28.75" height="23"/>
  <object id="59" x="385" y="599.75" width="29.5" height="198.5"/>
  <object id="60" x="147.5" y="1044.75" width="73" height="23"/>
  <object id="61" x="257.25" y="1046.25" width="127.25" height="26.75"/>
  <object id="62" x="147.75" y="707.75" width="10.25" height="336.75"/>
  <object id="65" x="153.667" y="889.667" width="231.083" height="36.5833"/>
  <object id="66" x="158.75" y="726.5" width="226.75" height="40.75"/>
  <object id="67" x="172.5" y="765" width="38.75" height="51.75"/>
  <object id="68" x="230.75" y="763.5" width="52.75" height="36.75"/>
  <object id="69" x="299.75" y="764" width="39.25" height="53.25"/>
  <object id="70" x="351.5" y="766.25" width="29.5" height="29.75"/>
  <object id="71" x="195.75" y="877.75" width="19.25" height="11.75"/>
  <object id="73" x="509.5" y="623.25" width="61.75" height="39"/>
  <object id="74" x="570.5" y="662.25" width="358.5" height="19.5"/>
  <object id="75" x="928.5" y="449.75" width="12" height="212.25"/>
  <object id="76" x="480.75" y="469.75" width="30" height="73.25"/>
  <object id="77" x="384.75" y="474" width="29.75" height="68.75"/>
  <object id="78" x="510.5" y="500.5" width="194" height="10.25"/>
  <object id="79" x="704.5" y="510" width="30.5" height="97"/>
  <object id="80" x="575.25" y="510.25" width="31" height="58.5"/>
  <object id="81" x="644.75" y="555.75" width="60.25" height="27.75"/>
  <object id="82" x="674" y="582" width="25.5" height="31.25"/>
  <object id="83" x="738.25" y="601" width="52.5" height="19"/>
  <object id="84" x="735.25" y="595.5" width="64.75" height="6.25"/>
  <object id="85" x="831.75" y="593.75" width="96.25" height="9.75"/>
  <object id="86" x="734" y="492.667" width="33" height="18.6667"/>
  <object id="87" x="800.333" y="492.333" width="128.667" height="18.3333"/>
  <object id="88" x="509.667" y="470.333" width="256" height="23.3333"/>
  <object id="89" x="801" y="470" width="63" height="9"/>
  <object id="90" x="864" y="226" width="12.3333" height="253"/>
  <object id="91" x="671" y="269.333" width="193.333" height="17.6667"/>
  <object id="92" x="608.333" y="287.333" width="62.6667" height="94.6667"/>
  <object id="93" x="743" y="284" width="44.6667" height="23"/>
  <object id="94" x="514.333" y="360" width="94.6667" height="20"/>
  <object id="95" x="256" y="352" width="223" height="29"/>
  <object id="96" x="189.333" y="469.667" width="225.333" height="4.33333"/>
  <object id="97" x="179.333" y="213.667" width="11" height="254.667"/>
  <object id="98" x="95.6667" y="214" width="83.6667" height="8"/>
  <object id="99" x="257" y="215" width="11" height="138"/>
  <object id="100" x="267.667" y="214.667" width="149" height="9"/>
  <object id="101" x="417" y="33.3333" width="12.3333" height="181.333"/>
  <object id="102" x="95.6667" y="83.6667" width="321" height="9.33333"/>
  <object id="103" x="85.3333" y="82.3333" width="9" height="132.667"/>
  <object id="104" x="95.6667" y="107" width="30" height="17.3333"/>
  <object id="105" x="139" y="90.3333" width="43" height="21"/>
  <object id="106" x="208.667" y="91.6667" width="29.3333" height="50"/>
  <object id="107" x="262.667" y="91" width="63.6667" height="32.6667"/>
  <object id="108" x="321" y="104" width="30.3333" height="47"/>
  <object id="109" x="369.667" y="93.3333" width="26.6667" height="47"/>
  <object id="110" x="359.333" y="191" width="55.6667" height="26.3333"/>
  <object id="111" x="176.5" y="467.5" width="14.5" height="260.5"/>
  <object id="112" x="190.667" y="502" width="194" height="8"/>
  <object id="113" x="327.333" y="507.667" width="18.6667" height="15.6667"/>
  <object id="114" x="258" y="508.667" width="59.6667" height="21.6667"/>
  <object id="116" x="275.667" y="524" width="24" height="41.3333"/>
  <object id="117" x="197" y="510" width="53.6667" height="20"/>
  <object id="118" x="189" y="657.667" width="59.3333" height="21"/>
  <object id="119" x="321.667" y="629.667" width="63.3333" height="10.6667"/>
  <object id="120" x="320" y="639" width="14.3333" height="23.3333"/>
  <object id="121" x="360.333" y="640" width="20" height="23.6667"/>
  <object id="124" x="451.333" y="192" width="27.3333" height="160.333"/>
  <object id="125" x="609.333" y="192.667" width="11" height="96.3333"/>
  <object id="126" x="477.333" y="247.667" width="133.667" height="6.66667"/>
  <object id="127" x="576" y="252.333" width="30" height="58.6667"/>
  <object id="128" x="704.333" y="1094" width="12.6667" height="196.667"/>
  <object id="129" x="704.333" y="1290" width="14.3333" height="11.6667"/>
  <object id="131" x="534.5" y="1118.75" width="9" height="26.25"/>
  <object id="144" x="550.714" y="793.064" width="38.311" height="20.1295"/>
  <object id="145" x="683.244" y="792.479" width="38.311" height="20.1295"/>
  <object id="146" x="816.748" y="793.258" width="38.311" height="20.1295"/>
  <object id="148" x="816.489" y="958.45" width="38.311" height="20.1295"/>
  <object id="149" x="683.504" y="959.1" width="38.311" height="20.1295"/>
  <object id="150" x="550.649" y="959.1" width="38.311" height="20.1295"/>
 </objectgroup>
 <layer id="10" name="above-player2" width="30" height="41">
  <data encoding="csv">
0,0,0,0,0,0,0,0,0,0,0,0,0,0,0,0,0,0,0,0,0,0,0,0,0,0,0,0,0,0,
0,0,0,0,0,0,0,0,0,0,0,0,0,0,0,0,0,0,0,0,0,0,0,0,0,0,0,0,0,0,
0,0,0,0,0,0,0,0,0,0,0,0,0,0,0,0,0,0,0,0,0,0,0,0,0,0,0,0,0,0,
0,0,0,0,0,0,0,0,0,0,0,0,0,0,0,0,0,0,0,0,0,0,0,0,0,0,0,0,0,0,
0,0,0,0,0,0,0,0,0,0,0,0,0,0,0,0,0,0,0,0,0,0,0,0,0,0,0,0,0,0,
0,0,0,0,0,0,0,0,0,0,0,0,0,0,0,0,0,0,0,0,0,0,0,0,0,0,0,0,0,0,
0,0,0,17493,17493,17562,0,0,17563,17493,17493,17493,17493,0,0,0,0,0,0,0,0,0,0,0,0,0,0,0,0,0,
0,0,0,0,0,0,0,0,0,0,0,0,0,0,0,0,0,0,0,0,0,0,0,0,0,0,0,0,0,0,
0,0,0,0,0,0,0,0,0,0,0,0,0,0,0,0,0,0,0,0,0,0,0,0,0,0,0,0,0,0,
0,0,0,0,0,0,0,0,0,0,0,0,0,0,0,0,0,0,0,0,0,0,0,0,0,0,0,0,0,0,
0,0,0,0,0,0,0,0,0,0,0,0,0,0,0,0,0,0,0,0,0,0,0,0,0,0,0,0,0,0,
0,0,0,0,0,0,0,0,0,0,0,0,0,0,0,0,0,0,0,0,0,0,0,0,0,0,0,0,0,0,
0,0,0,0,0,0,0,0,0,0,0,0,0,0,0,0,0,0,0,0,0,0,0,0,0,0,0,0,0,0,
0,0,0,0,0,0,0,0,0,0,0,0,0,0,0,0,0,0,0,0,0,0,0,0,0,0,0,0,0,0,
0,0,0,0,0,0,20153,20153,20153,20153,20153,20153,17419,0,0,17421,20153,20153,20153,20153,20153,20153,17420,20154,0,20152,20153,0,0,0,
0,0,0,0,0,0,0,0,0,0,0,0,0,0,0,0,0,0,0,0,0,0,0,0,0,0,0,0,0,0,
0,0,0,0,0,0,0,0,0,0,0,0,0,0,0,0,0,0,0,0,0,0,0,0,0,0,0,0,0,0,
0,0,0,0,0,0,0,0,0,0,0,0,0,0,0,0,0,0,0,0,0,0,0,0,0,0,0,0,0,0,
0,0,0,0,0,0,0,0,0,0,0,0,17497,0,0,17497,0,0,0,0,0,0,0,0,0,0,0,0,0,0,
0,0,0,0,0,0,0,0,0,0,0,0,0,0,0,0,9941,9942,0,0,0,0,0,0,0,0,0,0,0,0,
0,0,0,0,0,0,0,0,0,0,0,0,0,0,0,0,17493,17493,17493,17493,17493,17493,17493,17493,17493,17493,17493,17493,17493,0,
0,0,0,0,0,0,0,0,0,0,0,0,0,0,0,0,0,0,0,0,0,0,0,0,0,0,0,0,0,0,
0,0,0,0,0,0,20316,20316,20316,20316,20316,20316,0,0,0,0,0,0,0,0,0,0,0,0,0,0,0,0,17494,0,
0,0,0,0,0,0,0,0,0,0,0,0,0,0,0,0,0,0,0,0,0,0,0,0,0,0,0,0,17570,0,
0,0,0,0,0,0,0,0,0,0,0,0,0,0,0,0,0,0,0,0,0,0,0,0,0,0,0,0,17570,0,
0,0,0,0,0,0,0,0,0,0,0,0,0,0,0,0,0,0,0,0,0,0,0,0,0,0,0,0,17570,0,
0,0,0,0,0,0,8234,0,0,0,0,0,0,0,0,17497,0,0,0,0,0,0,0,0,0,0,0,0,17570,0,
0,0,0,0,0,19860,19860,19860,19860,19860,19860,19860,17419,0,0,0,19860,19860,19860,19860,19860,19860,19860,19860,19860,19860,19860,19860,17570,0,
0,0,0,0,0,0,0,0,0,0,0,0,0,0,0,0,0,0,0,0,0,0,0,0,0,0,0,0,17570,0,
0,0,0,0,0,0,0,0,0,0,0,0,0,0,0,0,0,0,0,0,0,0,0,0,0,0,0,0,17570,0,
0,0,0,0,0,0,0,0,0,0,0,0,0,0,0,0,0,0,0,0,0,0,0,0,0,0,0,0,17570,0,
0,0,0,0,0,0,0,0,0,0,0,0,0,0,0,17497,0,0,0,0,0,0,0,0,0,0,0,0,17570,0,
0,0,0,0,0,19708,19861,0,19859,19708,19708,19708,0,0,0,0,17493,17493,17493,17493,17493,17493,17493,17493,17493,17493,17493,17493,17646,0,
0,0,0,0,0,0,0,0,0,0,0,0,0,0,0,0,0,0,0,0,0,0,0,0,0,0,0,0,0,0,
0,0,0,0,0,0,0,0,0,0,0,0,0,0,0,0,0,0,0,0,0,0,0,0,0,0,0,0,0,0,
0,0,0,0,0,0,0,0,0,0,0,0,0,0,0,0,0,0,0,0,0,0,0,0,0,0,0,0,0,0,
9635,0,0,0,0,0,0,0,0,0,0,0,0,0,0,0,0,0,0,0,0,0,0,0,0,0,0,0,0,0,
9651,0,0,0,0,0,0,0,0,0,0,0,0,0,0,0,0,0,0,0,0,0,0,0,0,0,0,0,0,0,
17493,17493,17493,17493,17493,17493,17493,17493,17490,9635,0,0,0,0,0,0,0,0,0,0,0,0,0,0,0,0,0,0,0,0,
0,0,0,0,0,0,0,0,0,9651,0,9695,9696,0,0,0,0,0,0,0,0,0,0,0,0,0,0,0,0,0,
0,0,0,0,0,0,0,0,0,17493,17493,17493,17493,17493,17493,17493,17493,17493,17493,17493,17493,17493,0,0,0,0,0,0,0,0
</data>
 </layer>
 <layer id="11" name="above-player3" width="30" height="41">
  <data encoding="csv">
0,0,0,0,0,0,0,0,0,0,0,0,0,0,0,0,0,0,0,0,0,0,0,0,0,0,0,0,0,0,
0,0,0,0,0,0,0,0,0,0,0,0,0,0,0,0,0,0,0,0,0,0,0,0,0,0,0,0,0,0,
0,0,0,0,0,0,0,0,0,0,0,0,0,0,0,0,0,0,0,0,0,0,0,0,0,0,0,0,0,0,
0,0,0,0,0,0,0,0,0,0,0,0,0,0,0,0,0,0,0,0,0,0,0,0,0,0,0,0,0,0,
0,0,0,0,0,0,0,0,0,0,0,0,0,0,0,0,0,0,0,0,0,0,0,0,0,0,0,0,0,0,
0,0,0,0,0,0,0,0,0,0,0,0,0,0,0,0,0,0,0,0,0,0,0,0,0,0,0,0,0,0,
0,0,0,0,0,0,0,0,0,0,0,0,0,0,0,0,0,0,0,0,0,0,0,0,0,0,0,0,0,0,
0,0,0,0,0,0,0,0,0,0,0,0,0,0,0,0,0,0,0,0,0,0,0,0,0,0,0,0,0,0,
0,0,0,0,0,0,0,0,0,0,0,0,0,0,0,0,0,0,0,0,0,0,0,0,0,0,0,0,0,0,
0,0,0,0,0,0,0,0,0,0,0,0,0,0,0,0,0,0,0,0,0,0,0,0,0,0,0,0,0,0,
0,0,0,0,0,0,0,0,0,0,0,0,0,0,0,0,0,0,0,0,0,0,0,0,0,0,0,0,0,0,
0,0,0,0,0,0,0,0,0,0,0,0,0,0,0,0,0,0,0,0,0,0,0,0,0,0,0,0,0,0,
0,0,0,0,0,0,0,0,0,0,0,0,0,0,0,0,0,0,0,0,0,0,0,0,0,0,0,0,0,0,
0,0,0,0,0,0,0,0,0,0,0,0,0,0,0,0,0,0,0,0,0,0,0,0,0,0,0,0,0,0,
0,0,0,0,0,0,0,0,10054,10055,10002,10049,0,0,0,0,0,0,9977,10019,10020,10021,0,0,0,0,0,0,0,0,
0,0,0,0,0,0,0,0,0,0,0,0,0,0,0,0,0,0,0,0,0,0,0,0,0,0,0,0,0,0,
0,0,0,0,0,0,0,0,0,0,0,0,0,0,0,0,0,0,0,0,0,0,0,0,0,0,0,0,0,0,
0,0,0,0,0,0,0,0,0,0,0,0,0,0,0,0,0,0,0,0,0,0,0,0,0,0,0,0,0,0,
0,0,0,0,0,0,0,0,0,0,0,0,0,0,0,0,0,0,0,0,0,0,0,0,0,0,0,0,0,0,
0,0,0,0,0,0,0,0,0,0,0,0,0,0,0,0,0,0,0,0,0,0,0,0,0,0,0,0,0,0,
0,0,0,0,0,0,0,0,0,0,0,0,0,0,0,0,0,0,0,0,0,0,0,0,0,0,0,0,0,0,
0,0,0,0,0,0,0,0,0,0,0,0,0,0,0,0,0,0,0,0,0,0,0,0,0,0,0,0,0,0,
0,0,0,0,0,0,0,9891,9892,0,0,0,0,0,0,0,0,9830,9831,0,0,0,0,0,0,0,0,0,0,0,
0,0,0,0,0,0,0,0,0,0,0,0,0,0,0,0,0,0,0,0,0,0,0,0,0,0,0,0,0,0,
0,0,0,0,0,0,0,0,0,0,0,0,0,0,0,0,0,0,0,0,0,0,0,0,0,0,0,0,0,0,
0,0,0,0,0,0,0,0,0,0,0,0,0,0,0,0,0,0,0,0,0,0,0,0,0,0,0,0,0,0,
0,0,0,0,0,0,0,0,0,0,0,0,0,0,0,0,0,0,0,0,0,0,0,0,0,0,0,0,0,0,
0,0,0,0,0,9564,0,9565,9567,9661,9662,9568,0,0,0,0,0,0,0,0,0,0,9827,9828,0,9814,9815,0,0,0,
0,0,0,0,0,0,0,0,0,0,0,0,0,0,0,0,0,0,0,0,0,0,0,0,0,0,0,0,0,0,
0,0,0,0,0,0,0,0,0,0,0,0,0,0,0,0,0,0,0,0,0,0,0,0,0,0,0,0,0,0,
0,0,0,0,0,0,0,0,0,0,0,0,0,0,0,0,0,0,0,0,0,0,0,0,0,0,0,0,0,0,
0,0,0,0,0,0,0,0,0,0,0,0,0,0,0,0,0,0,0,0,0,0,0,0,0,0,0,0,0,0,
0,0,0,0,0,0,0,0,0,0,0,0,0,0,0,0,0,0,0,0,0,0,0,0,0,0,0,0,0,0,
0,0,0,0,0,0,0,0,0,0,0,0,0,0,0,0,0,0,0,0,0,0,0,0,0,0,0,0,0,0,
0,0,0,0,0,0,0,0,0,0,0,0,0,0,0,0,0,0,0,0,0,0,0,0,0,0,0,0,0,0,
0,0,0,0,0,0,0,0,0,0,0,0,0,0,0,0,0,0,0,0,0,0,0,0,0,0,0,0,0,0,
0,0,0,0,0,0,0,0,0,0,0,0,0,0,0,0,0,0,0,0,0,0,0,0,0,0,0,0,0,0,
0,0,0,0,0,0,0,0,0,0,0,0,0,0,0,0,0,0,0,0,0,0,0,0,0,0,0,0,0,0,
0,0,0,0,0,0,0,0,0,0,0,0,0,0,0,0,0,0,0,0,0,0,0,0,0,0,0,0,0,0,
0,0,0,0,0,0,0,0,0,0,0,0,0,0,0,0,0,0,0,0,0,0,0,0,0,0,0,0,0,0,
0,0,0,0,0,0,0,0,0,0,0,0,0,0,0,0,0,0,0,0,0,0,0,0,0,0,0,0,0,0
</data>
 </layer>
 <layer id="12" name="above-player4" width="30" height="41">
  <data encoding="csv">
0,0,0,0,0,0,0,0,0,0,0,0,0,0,0,0,0,0,0,0,0,0,0,0,0,0,0,0,0,0,
0,0,0,0,0,0,0,0,0,0,0,0,0,0,0,0,0,0,0,0,0,0,0,0,0,0,0,0,0,0,
0,0,0,0,0,0,0,0,0,0,0,0,0,0,0,0,0,0,0,0,0,0,0,0,0,0,0,0,0,0,
0,0,0,0,0,0,0,0,0,0,0,0,0,0,0,0,0,0,0,0,0,0,0,0,0,0,0,0,0,0,
0,0,0,0,0,0,0,0,0,0,0,0,0,0,0,0,0,0,0,0,0,0,0,0,0,0,0,0,0,0,
0,0,0,0,0,0,0,0,0,0,0,0,0,0,0,0,0,0,0,0,0,0,0,0,0,0,0,0,0,0,
0,0,0,0,0,0,0,0,0,0,0,0,0,0,0,0,0,0,0,0,0,0,0,0,0,0,0,0,0,0,
0,0,0,0,0,0,0,0,0,0,0,0,0,0,0,0,0,0,0,0,0,0,0,0,0,0,0,0,0,0,
0,0,0,0,0,0,0,0,0,0,0,0,0,0,0,0,0,0,0,0,0,0,0,0,0,0,0,0,0,0,
0,0,0,0,0,0,0,0,0,0,0,0,0,0,0,0,0,0,0,0,0,0,0,0,0,0,0,0,0,0,
0,0,0,0,0,0,0,0,0,0,0,0,0,0,0,0,0,0,0,0,0,0,0,0,0,0,0,0,0,0,
0,0,0,0,0,0,0,0,0,0,0,0,0,0,0,0,0,0,0,0,0,0,0,0,0,0,0,0,0,0,
0,0,0,0,0,0,0,0,0,0,0,0,0,0,0,0,0,0,0,0,0,0,0,0,0,0,0,0,0,0,
0,0,0,0,0,0,0,0,0,0,0,0,0,0,0,0,0,0,0,0,0,0,0,0,0,0,0,0,0,0,
0,0,0,0,0,0,0,0,0,0,0,0,0,0,0,0,0,0,0,9953,0,0,0,0,0,0,10245,0,0,0,
0,0,0,0,0,0,0,0,0,0,0,0,0,0,0,0,0,0,0,0,0,0,0,0,0,0,0,0,0,0,
0,0,0,0,0,0,0,0,0,0,0,0,0,0,0,0,0,0,0,0,0,0,0,0,0,0,0,0,0,0,
0,0,0,0,0,0,0,0,0,0,0,0,0,0,0,0,0,0,0,0,0,0,0,0,0,0,0,0,0,0,
0,0,0,0,0,0,0,0,0,0,0,0,0,0,0,0,0,0,0,0,0,0,0,0,0,0,0,0,0,0,
0,0,0,0,0,0,0,0,0,0,0,0,0,0,0,0,0,0,0,0,0,0,0,0,0,0,0,0,0,0,
0,0,0,0,0,0,0,0,0,0,0,0,0,0,0,0,0,0,0,0,0,0,0,0,0,0,0,0,0,0,
0,0,0,0,0,0,0,0,0,0,0,0,0,0,0,0,0,0,0,0,0,0,0,0,0,0,0,0,0,0,
0,0,0,0,0,0,0,0,0,0,0,0,0,0,0,0,0,0,0,0,0,0,0,0,0,0,0,0,0,0,
0,0,0,0,0,0,0,0,0,0,0,0,0,0,0,0,0,0,0,0,0,0,0,0,0,0,0,0,0,0,
0,0,0,0,0,0,0,0,0,0,0,0,0,0,0,0,0,0,0,0,0,0,0,0,0,0,0,0,0,0,
0,0,0,0,0,0,0,0,0,0,0,0,0,0,0,0,0,0,0,0,0,0,0,0,0,0,0,0,0,0,
0,0,0,0,0,0,0,0,0,0,0,0,0,0,0,0,0,0,0,0,0,0,0,0,0,0,0,0,0,0,
0,0,0,0,0,0,0,0,0,0,0,0,0,0,0,0,0,0,0,0,0,0,0,0,0,0,0,0,0,0,
0,0,0,0,0,0,0,0,0,0,0,0,0,0,0,0,0,0,0,0,0,0,0,0,0,0,0,0,0,0,
0,0,0,0,0,0,0,0,0,0,0,0,0,0,0,0,0,0,0,0,0,0,0,0,0,0,0,0,0,0,
0,0,0,0,0,0,0,0,0,0,0,0,0,0,0,0,0,0,0,0,0,0,0,0,0,0,0,0,0,0,
0,0,0,0,0,0,0,0,0,0,0,0,0,0,0,0,0,0,0,0,0,0,0,0,0,0,0,0,0,0,
0,0,0,0,0,0,0,0,0,0,0,0,0,0,0,0,0,0,0,0,0,0,0,0,0,0,0,0,0,0,
0,0,0,0,0,0,0,0,0,0,0,0,0,0,0,0,0,0,0,0,0,0,0,0,0,0,0,0,0,0,
0,0,0,0,0,0,0,0,0,0,0,0,0,0,0,0,0,0,0,0,0,0,0,0,0,0,0,0,0,0,
0,0,0,0,0,0,0,0,0,0,0,0,0,0,0,0,0,0,0,0,0,0,0,0,0,0,0,0,0,0,
0,0,0,0,0,0,0,0,0,0,0,0,0,0,0,0,0,0,0,0,0,0,0,0,0,0,0,0,0,0,
0,0,0,0,0,0,0,0,0,0,0,0,0,0,0,0,0,0,0,0,0,0,0,0,0,0,0,0,0,0,
0,0,0,0,0,0,0,0,0,0,0,0,0,0,0,0,0,0,0,0,0,0,0,0,0,0,0,0,0,0,
0,0,0,0,0,0,0,0,0,0,0,0,0,0,0,0,0,0,0,0,0,0,0,0,0,0,0,0,0,0,
0,0,0,0,0,0,0,0,0,0,0,0,0,0,0,0,0,0,0,0,0,0,0,0,0,0,0,0,0,0
</data>
 </layer>
</map>
